mimes/32/application-pdf.svg

<?xml version="1.0" encoding="UTF-8" standalone="no"?>
<svg
   xmlns:dc="http://purl.org/dc/elements/1.1/"
   xmlns:cc="http://creativecommons.org/ns#"
   xmlns:rdf="http://www.w3.org/1999/02/22-rdf-syntax-ns#"
   xmlns:svg="http://www.w3.org/2000/svg"
   xmlns="http://www.w3.org/2000/svg"
   xmlns:xlink="http://www.w3.org/1999/xlink"
   xmlns:sodipodi="http://sodipodi.sourceforge.net/DTD/sodipodi-0.dtd"
   xmlns:inkscape="http://www.inkscape.org/namespaces/inkscape"
   width="32px"
   height="32px"
   id="svg4011"
   version="1.1"
   inkscape:version="0.91 r13725"
   sodipodi:docname="application-pdf.svg">
  <sodipodi:namedview
     pagecolor="#ffffff"
     bordercolor="#666666"
     borderopacity="1"
     objecttolerance="10"
     gridtolerance="10"
     guidetolerance="10"
     inkscape:pageopacity="0"
     inkscape:pageshadow="2"
     inkscape:window-width="640"
     inkscape:window-height="480"
     id="namedview642" />
  <defs
     id="defs4013">
    <radialGradient
       xlink:href="#linearGradient5060"
       id="radialGradient3045"
       gradientUnits="userSpaceOnUse"
       gradientTransform="matrix(0.01566318,0,0,0.00823529,17.610433,25.980565)"
       cx="605.71429"
       cy="486.64789"
       fx="605.71429"
       fy="486.64789"
       r="117.14286" />
    <linearGradient
       id="linearGradient5060">
      <stop
         id="stop5062"
         style="stop-color:#000000;stop-opacity:1"
         offset="0" />
      <stop
         id="stop5064"
         style="stop-color:#000000;stop-opacity:0"
         offset="1" />
    </linearGradient>
    <radialGradient
       xlink:href="#linearGradient5060"
       id="radialGradient3048"
       gradientUnits="userSpaceOnUse"
       gradientTransform="matrix(-0.01566318,0,0,0.00823529,14.389566,25.980565)"
       cx="605.71429"
       cy="486.64789"
       fx="605.71429"
       fy="486.64789"
       r="117.14286" />
    <linearGradient
       id="linearGradient5048">
      <stop
         id="stop5050"
         style="stop-color:#000000;stop-opacity:0"
         offset="0" />
      <stop
         id="stop5056"
         style="stop-color:#000000;stop-opacity:1"
         offset="0.5" />
      <stop
         id="stop5052"
         style="stop-color:#000000;stop-opacity:0"
         offset="1" />
    </linearGradient>
    <linearGradient
       y2="609.50507"
       x2="302.85715"
       y1="366.64789"
       x1="302.85715"
       gradientTransform="matrix(0.04576928,0,0,0.00823529,-0.5423243,25.980548)"
       gradientUnits="userSpaceOnUse"
       id="linearGradient4009"
       xlink:href="#linearGradient5048" />
    <linearGradient
       id="linearGradient3242-4">
      <stop
         id="stop3244-7"
         style="stop-color:#f89b7e;stop-opacity:1"
         offset="0" />
      <stop
         id="stop3246-1"
         style="stop-color:#e35d4f;stop-opacity:1"
         offset="0.26238" />
      <stop
         id="stop3248-5"
         style="stop-color:#c6262e;stop-opacity:1"
         offset="0.66093999" />
      <stop
         id="stop3250-7"
         style="stop-color:#690b2c;stop-opacity:1"
         offset="1" />
    </linearGradient>
    <linearGradient
       id="linearGradient5803-2-7">
      <stop
         id="stop5805-3-6"
         style="stop-color:#fffdf3;stop-opacity:1"
         offset="0" />
      <stop
         id="stop5807-0-0"
         style="stop-color:#fbebeb;stop-opacity:1"
         offset="1" />
    </linearGradient>
    <linearGradient
       id="linearGradient3977-4-1">
      <stop
         offset="0"
         style="stop-color:#ffffff;stop-opacity:1"
         id="stop3979-7" />
      <stop
         offset="0.01214366"
         style="stop-color:#ffffff;stop-opacity:0.23529412"
         id="stop3981-6" />
      <stop
         offset="0.98781353"
         style="stop-color:#ffffff;stop-opacity:0.15686275"
         id="stop3983-5-5" />
      <stop
         offset="1"
         style="stop-color:#ffffff;stop-opacity:0.39215687"
         id="stop3985-6" />
    </linearGradient>
    <linearGradient
       xlink:href="#linearGradient3977-4-1"
       id="linearGradient3261"
       gradientUnits="userSpaceOnUse"
       gradientTransform="matrix(0.56756758,0,0,0.72972786,2.3783754,-2.5134912)"
       x1="23.99999"
       y1="5.8641062"
       x2="23.99999"
       y2="42.100208" />
    <linearGradient
       xlink:href="#linearGradient5803-2-7"
       id="linearGradient3265"
       gradientUnits="userSpaceOnUse"
       gradientTransform="matrix(0.51446856,0,0,0.51930682,-30.281122,-1.5965341)"
       x1="167.98311"
       y1="8.50811"
       x2="167.98311"
       y2="54.780239" />
    <radialGradient
       xlink:href="#linearGradient3242-4"
       id="radialGradient3271"
       gradientUnits="userSpaceOnUse"
       gradientTransform="matrix(0,4.9580738,-6.0601393,0,76.619254,-47.805616)"
       cx="8.276144"
       cy="9.9941158"
       fx="8.276144"
       fy="9.9941158"
       r="12.671875" />
  </defs>
  <metadata
     id="metadata4016">
    <rdf:RDF>
      <cc:Work
         rdf:about="">
        <dc:format>image/svg+xml</dc:format>
        <dc:type
           rdf:resource="http://purl.org/dc/dcmitype/StillImage" />
        <dc:title />
      </cc:Work>
    </rdf:RDF>
  </metadata>
  <g
     id="layer1">
    <rect
       style="opacity:0.15;fill:url(#linearGradient4009);fill-opacity:1;fill-rule:nonzero;stroke:none;stroke-width:1;marker:none;visibility:visible;display:inline;overflow:visible"
       id="rect2879"
       y="29"
       x="4.9499893"
       height="2"
       width="22.100021" />
    <path
       style="opacity:0.15;fill:url(#radialGradient3048);fill-opacity:1;fill-rule:nonzero;stroke:none;stroke-width:1;marker:none;visibility:visible;display:inline;overflow:visible"
       id="path2881"
       d="m 4.9499887,29.000086 c 0,0 0,1.99989 0,1.99989 -0.806615,0.0038 -1.950002,-0.448074 -1.950002,-1.000074 0,-0.552 0.900121,-0.999816 1.950002,-0.999816 z" />
    <path
       style="opacity:0.15;fill:url(#radialGradient3045);fill-opacity:1;fill-rule:nonzero;stroke:none;stroke-width:1;marker:none;visibility:visible;display:inline;overflow:visible"
       id="path2883"
       d="m 27.050011,29.000086 c 0,0 0,1.99989 0,1.99989 0.806614,0.0038 1.950002,-0.448074 1.950002,-1.000074 0,-0.552 -0.900122,-0.999816 -1.950002,-0.999816 z" />
    <path
       style="color:#000000;fill:url(#radialGradient3271);fill-opacity:1;fill-rule:nonzero;stroke:none;stroke-width:0.99999994;marker:none;visibility:visible;display:inline;overflow:visible;enable-background:accumulate"
       id="path4160-6"
       d="m 4.4999939,0.5000075 c 5.270468,0 22.9999731,0.002 22.9999731,0.002 l 2.7e-5,28.9979845 c 0,0 -15.333333,0 -23.0000001,0 0,-9.666672 0,-19.333193 0,-28.9998245 z" />
    <path
       style="opacity:0.14999999999999999;color:#000000;fill:#661215;fill-opacity:1;fill-rule:evenodd;stroke:none;stroke-width:1;marker:none;visibility:visible;display:inline;overflow:visible;enable-background:accumulate"
       d="M 18.625 0.9375 A 1.063215 1.063215 0 0 0 18.125 1.1875 C 11.770526 6.6912612 7.3172428 8.9439713 4.65625 9.84375 A 1.063215 1.063215 0 0 0 4.5 9.90625 L 4.5 14.78125 A 1.063215 1.063215 0 0 0 5.3125 14.84375 C 6.9662712 14.352196 8.974639 13.527256 11.09375 12.1875 C 13.989925 10.356462 16.707154 7.9718326 18.78125 6.0625 C 18.505346 7.757674 18.319167 9.7993165 18.15625 12.25 C 17.871572 16.532277 17.752414 22.17309 17.71875 28.25 C 16.762194 26.261255 15.220143 24.241266 13.21875 22.3125 C 10.722122 19.906471 7.8566298 17.729183 5.53125 16.4375 A 1.063215 1.063215 0 0 0 4.5 16.40625 L 4.5 21.125 A 1.063215 1.063215 0 0 0 4.59375 21.1875 C 7.5866035 22.434461 11.251534 25.734969 13.5 29.5 L 27.5 29.5 L 27.5 16.625 C 27.356322 15.882015 27.226059 15.129774 27.09375 14.40625 C 26.529703 10.085753 27.051869 6.1782176 27.5 3.875 L 27.5 1.1875 A 1.063215 1.063215 0 0 0 26.8125 0.9375 C 26.69887 0.9374878 21.946995 0.93782828 18.8125 0.9375 A 1.063215 1.063215 0 0 0 18.71875 0.9375 A 1.063215 1.063215 0 0 0 18.625 0.9375 z "
       id="path3377" />
    <path
       style="color:#000000;fill:#661215;fill-opacity:1;fill-rule:evenodd;stroke:none;marker:none;visibility:visible;display:inline;overflow:visible;enable-background:accumulate;opacity:0.29999999999999999;stroke-width:1"
       d="M 18.8125 2 C 12.380589 7.5708316 7.826669 9.8879501 5 10.84375 L 5 13.8125 C 6.5709674 13.345558 8.5049657 12.562319 10.53125 11.28125 C 15.193137 8.3338815 20.78125 2.75 20.78125 2.75 C 19.271828 5.7386652 18.789517 15.955798 18.75 29.5 L 27 29.5 L 27 19.375 C 26.638792 17.752026 26.319194 16.108845 26.03125 14.53125 C 25.272742 8.721219 26.397247 3.636627 26.8125 2 C 26.70445 1.9999884 21.947184 2.0003283 18.8125 2 z M 5 17.375 L 5 20.21875 C 8.451995 21.65701 12.42559 25.288461 14.75 29.5 L 17.3125 29.5 C 15.836758 25.455229 9.2341699 19.726963 5 17.375 z "
       id="path6711-5" />
    <path
       style="color:#000000;fill:url(#linearGradient3265);fill-opacity:1;fill-rule:nonzero;stroke:none;marker:none;visibility:visible;display:inline;overflow:visible;enable-background:accumulate"
       d="M 18.809777,1 C 12.377866,6.5708316 7.8266629,8.8847178 4.9999939,9.8405177 l 0,2.9568963 C 6.5709613,12.330472 8.5185467,11.559087 10.544831,10.278018 15.206718,7.3306492 20.767657,1.7392241 20.767657,1.7392241 19.239129,4.765719 18.794475,15.199567 18.76494,29 l 8.235054,0 0,-10.635776 C 26.638786,16.74125 26.316471,15.099147 26.028527,13.521552 25.270019,7.7115207 26.390447,2.636627 26.8057,1 c -0.10805,-1.155e-5 -4.861239,3.283e-4 -7.995923,0 z m -13.8097831,15.372845 0,2.851293 C 8.5891724,20.719555 12.752405,24.574928 15.028527,29 l 2.451087,0 C 16.400928,24.942596 9.4101875,18.822584 4.9999939,16.372845 z"
       id="path6711" />
    <path
       style="opacity:0.05000000000000000;fill:#000000;fill-opacity:1;fill-rule:evenodd;stroke:none;color:#000000;marker:none;visibility:visible;display:inline;overflow:visible;enable-background:accumulate"
       d="M 25.59375 1.03125 C 22.540451 3.3165318 12.547618 10.288032 5 9.40625 L 5 15.71875 C 5 15.71875 20.643747 18.574158 27.125 13.28125 L 27.125 1.21875 C 26.960791 1.1154873 26.791643 1.03125 26.59375 1.03125 L 25.59375 1.03125 z M 27.125 16.1875 C 24.31595 19.773993 21.542259 24.307891 19.625 29 L 22 29 C 23.486044 25.915749 25.375343 22.577241 27.125 20.21875 L 27.125 16.1875 z "
       id="path6713-2" />
    <path
       style="opacity:0.35;color:#000000;fill:none;stroke:#410000;stroke-width:1;stroke-linecap:round;stroke-linejoin:round;stroke-miterlimit:4;stroke-opacity:1;stroke-dasharray:none;stroke-dashoffset:0;marker:none;visibility:visible;display:inline;overflow:visible;enable-background:accumulate"
       id="path4160-6-1"
       d="m 4.4999938,0.499983 c 5.270463,0 22.9999762,0.002 22.9999762,0.002 l 2.4e-5,28.998034 c 0,0 -15.333333,0 -23.0000002,0 0,-9.666696 0,-19.333294 0,-28.999877 z" />
    <path
       style="opacity:0.5;fill:none;stroke:url(#linearGradient3261);stroke-width:1;stroke-linecap:round;stroke-linejoin:miter;stroke-miterlimit:4;stroke-opacity:1;stroke-dasharray:none;stroke-dashoffset:0"
       id="rect6741-1-8"
       d="m 26.499994,28.500001 -21.0000006,0 0,-27.000002 21.0000006,0 z" />
  </g>
</svg>

<svg xmlns="http://www.w3.org/2000/svg" xmlns:xlink="http://www.w3.org/1999/xlink" viewBox="0 0 32 32"><defs><radialGradient xlink:href="#a" id="h" gradientUnits="userSpaceOnUse" gradientTransform="matrix(.01566 0 0 .00824 17.61 25.98)" cx="605.714" cy="486.648" fx="605.714" fy="486.648" r="117.143"/><linearGradient id="a"><stop offset="0"/><stop offset="1" stop-opacity="0"/></linearGradient><radialGradient xlink:href="#a" id="g" gradientUnits="userSpaceOnUse" gradientTransform="matrix(-.01566 0 0 .00824 14.39 25.98)" cx="605.714" cy="486.648" fx="605.714" fy="486.648" r="117.143"/><linearGradient id="b"><stop offset="0" stop-opacity="0"/><stop offset=".5"/><stop offset="1" stop-opacity="0"/></linearGradient><linearGradient y2="609.505" x2="302.857" y1="366.648" x1="302.857" gradientTransform="matrix(.04577 0 0 .00824 -.542 25.98)" gradientUnits="userSpaceOnUse" id="f" xlink:href="#b"/><linearGradient id="e"><stop offset="0" stop-color="#f89b7e"/><stop offset=".262" stop-color="#e35d4f"/><stop offset=".661" stop-color="#c6262e"/><stop offset="1" stop-color="#690b2c"/></linearGradient><linearGradient id="d"><stop offset="0" stop-color="#fffdf3"/><stop offset="1" stop-color="#fbebeb"/></linearGradient><linearGradient id="c"><stop offset="0" stop-color="#fff"/><stop offset=".012" stop-color="#fff" stop-opacity=".235"/><stop offset=".988" stop-color="#fff" stop-opacity=".157"/><stop offset="1" stop-color="#fff" stop-opacity=".392"/></linearGradient><linearGradient xlink:href="#c" id="k" gradientUnits="userSpaceOnUse" gradientTransform="matrix(.56757 0 0 .72973 2.378 -2.513)" x1="24" y1="5.864" x2="24" y2="42.1"/><linearGradient xlink:href="#d" id="j" gradientUnits="userSpaceOnUse" gradientTransform="matrix(.51447 0 0 .5193 -30.28 -1.597)" x1="167.983" y1="8.508" x2="167.983" y2="54.78"/><radialGradient xlink:href="#e" id="i" gradientUnits="userSpaceOnUse" gradientTransform="matrix(0 4.95807 -6.06014 0 76.62 -47.806)" cx="8.276" cy="9.994" fx="8.276" fy="9.994" r="12.672"/></defs><path opacity=".15" fill="url(#f)" overflow="visible" d="M4.95 29h22.1v2H4.95z"/><path d="M4.95 29v2c-.807.004-1.95-.448-1.95-1s.9-1 1.95-1z" opacity=".15" fill="url(#g)" overflow="visible"/><path d="M27.05 29v2c.807.004 1.95-.448 1.95-1s-.9-1-1.95-1z" opacity=".15" fill="url(#h)" overflow="visible"/><path d="M4.5.5l23 .002V29.5h-23V.5z" color="#000" fill="url(#i)" overflow="visible"/><path d="M18.625.938a1.063 1.063 0 0 0-.5.25C11.77 6.69 7.317 8.944 4.655 9.844a1.063 1.063 0 0 0-.155.062v4.875a1.063 1.063 0 0 0 .813.066 23.35 23.35 0 0 0 5.78-2.656c2.897-1.833 5.614-4.217 7.688-6.127-.273 1.696-.46 3.737-.622 6.188-.284 4.284-.404 9.925-.437 16-.957-1.99-2.5-4.01-4.5-5.936-2.497-2.406-5.362-4.583-7.69-5.875a1.063 1.063 0 0 0-1.03-.03v4.717a1.063 1.063 0 0 0 .095.063c2.993 1.245 6.658 4.546 8.906 8.31h14V16.626c-.143-.743-.273-1.495-.405-2.22-.564-4.32-.042-8.227.406-10.53v-2.69a1.063 1.063 0 0 0-.687-.25h-8a1.063 1.063 0 0 0-.093 0 1.063 1.063 0 0 0-.096 0z" opacity=".15" color="#000" fill="#661215" fill-rule="evenodd" overflow="visible"/><path d="M18.813 2C12.38 7.57 7.826 9.888 5 10.844v2.97a22.304 22.304 0 0 0 5.53-2.533c4.663-2.944 10.25-8.53 10.25-8.53-1.508 2.99-1.99 13.208-2.03 26.75H27V19.377c-.36-1.623-.68-3.266-.97-4.844-.757-5.81.367-10.892.782-12.53h-8zM5 17.375v2.844c3.452 1.435 7.426 5.066 9.75 9.28h2.563C15.837 25.453 9.233 19.725 5 17.373z" color="#000" fill="#661215" fill-rule="evenodd" overflow="visible" opacity=".3"/><path d="M18.81 1C12.378 6.57 7.827 8.885 5 9.84v2.957a22.278 22.278 0 0 0 5.545-2.52C15.207 7.332 20.768 1.74 20.768 1.74 19.238 4.765 18.794 15.2 18.765 29H27V18.364c-.36-1.623-.684-3.265-.97-4.842-.76-5.81.36-10.885.776-12.522H18.81zM5 16.373v2.85C8.59 20.72 12.752 24.576 15.03 29h2.45C16.4 24.943 9.41 18.823 5 16.373z" color="#000" fill="url(#j)" overflow="visible"/><path d="M25.594 1.03C22.54 3.318 12.548 10.29 5 9.407v6.313s15.644 2.854 22.125-2.44V1.22c-.164-.105-.333-.19-.53-.19h-1zm1.53 15.158c-2.808 3.586-5.582 8.12-7.5 12.812H22c1.486-3.084 3.375-6.423 5.125-8.78v-4.032z" opacity=".05" fill-rule="evenodd" color="#000" overflow="visible"/><path d="M4.5.5l23 .002V29.5h-23V.5z" opacity=".35" color="#000" fill="none" stroke="#410000" stroke-linecap="round" stroke-linejoin="round" overflow="visible"/><path d="M26.5 28.5h-21v-27h21z" opacity=".5" fill="none" stroke="url(#k)" stroke-linecap="round"/></svg>
